X:5
T:K.V. 487/5
M:C
L:1/8
K:C major
V:1
e2 z2 (ed)(dc) | c2 z +<(+ .G .c.d.e.f +<)+ | +mf+ (ge)(ag) (gf)(fe) | (e4d2) z2 | +p+ e2 z e (ed)(dc) | c2 z +<(+ .G .c.d.e.f +<)+ | +f+ (gc)(eg) (gfed) | d4 c2 z2 :: +f+ d4 e4 | (g^f=fe) d2 z d | e2 e2 ^f2 f2 | (g6^f=f) | +p+ e2 z2 (ed)(dc) | c2 z G +<(+ c/2d/2e/2f/2 g/2a/2b/2c'/2 +<)+ | +p+ g2 +f+ (eg) (gfed) | (d4 c2) z2 :|]
V:2
+p+ c2 z2 (cG)(GE) | E2 z2 z +<(+ .G.c.d +<)+ | +mf+ (ec)(fe) (ed)(dc) | .G(G^FG) G,2 z2 | +p+ c2 z c (cG)(GE) | E2 z2 z +<(+ .G.c.d +<)+ | +f+ e2 (ce) (edcG) | (G4E2) z2 :: +f+ B2G2c2G2 | d2 G2B2G2 | +mf+ c3 B/2c/2 dcBA | G4 z4 | +p+ c2 z2 (cG)(GE) | E/2G/2c/2e/2 c/2G/2E/2G/2 C2 z2 | +p+ e2 +f+ (ce) (edcG) | (G4 E2) z2 :|]

